build/img/icon-phone.svg

<svg width="8" height="8" viewBox="0 0 8 8" fill="none" xmlns="http://www.w3.org/2000/svg">
<path d="M7.53637 6.1416L5.84262 4.6016C5.76256 4.52883 5.65735 4.49002 5.5492 4.49337C5.44106 4.49671 5.33845 4.54194 5.26304 4.61952L4.26595 5.64494C4.02595 5.5991 3.54345 5.44869 3.04678 4.95327C2.55012 4.45619 2.3997 3.97244 2.35512 3.7341L3.3797 2.7366C3.45737 2.66124 3.50268 2.55861 3.50602 2.45044C3.50936 2.34227 3.47049 2.23704 3.39762 2.15702L1.85803 0.463687C1.78514 0.383419 1.68382 0.33473 1.5756 0.327962C1.46738 0.321193 1.36078 0.356878 1.27845 0.427437L0.374284 1.20285C0.302247 1.27515 0.259251 1.37137 0.253451 1.47327C0.247201 1.57744 0.128034 4.04494 2.04137 5.9591C3.71054 7.62785 5.80137 7.74994 6.3772 7.74994C6.46137 7.74994 6.51304 7.74744 6.52679 7.7466C6.62867 7.7409 6.72484 7.69771 6.79679 7.62535L7.57179 6.72077C7.64262 6.6387 7.67857 6.53219 7.67195 6.42398C7.66534 6.31577 7.61668 6.21443 7.53637 6.1416Z" fill="white"/>
</svg>

<svg width="8" height="8" fill="none" xmlns="http://www.w3.org/2000/svg"><path d="M7.536 6.142l-1.693-1.54a.417.417 0 00-.58.018l-.997 1.025c-.24-.046-.723-.196-1.22-.692-.496-.497-.646-.98-.69-1.219l1.024-.997a.417.417 0 00.018-.58L1.858.464a.417.417 0 00-.58-.037l-.904.776a.417.417 0 00-.12.27C.246 1.577.127 4.045 2.04 5.96 3.71 7.629 5.8 7.75 6.376 7.75c.084 0 .136-.002.15-.002a.413.413 0 00.27-.122l.775-.904a.415.415 0 00-.036-.58z" fill="#fff"/></svg>
